**kern	**silbe
*ICvox	*
r;	.
=1	=1
*b:	*
*M4/4	*
*clefF4	*
1r	.
=2	=2
1r	.
=3	=3
1r	.
=4	=4
1r	.
=5	=5
1r	.
=6	=6
1r	.
=7	=7
1r	.
=8	=8
1r	.
=9	=9
1r	.
=10	=10
1r	.
=11	=11
1r	.
=12	=12
1r	.
=13	=13
1r	.
=14	=14
1r	.
=15	=15
1r	.
=16	=16
1r	.
=17	=17
4r	.
8F#	Last
4E	night
8D	a
8E	lit-
8F#	-tle
=18	=18
4E	dan-
8D	-cer
8r	.
4r	.
4E	came
=19	=19
4F#	danc-
4F#	-in'
8E	to
4E	my
[8BB	door.
=20	=20
2BB]	_
2r	.
=21	=21
4r	.
8F#	Last
4E	night
8D	a
8E	lit-
8F#	-tle
=22	=22
4E	an-
4D	-gel
4r	.
4E	came
=23	=23
4F#	pump-
4F#	-in'
8E	on
4E	my
[8BB	floor.
=24	=24
2BB]	_
2r	.
=25	=25
4r	.
8F#	She
4E	said
8D	uh
4F#	come
=26	=26
4E	ba-
4D	-by
4r	.
8F#	bought
8E	a
=27	=27
4F#	li-
4F#	-cense
4E	for
4F#	love;
=28	=28
4r	.
4r	.
2r	.
=29	=29
4r	.
8F#	and
4E	if
8D	it
4F#	ex-
=30	=30
4E	-pir-
4D	-es
4r	.
4f#	pray
=31	=31
4f#	help
4f#	from
4e	a-
4f#	-bove.
=32	=32
4r	.
8f#	be-
8f#	-cause!.
4f	_
4r	.
=33	=33
4r	.
8f#	In
8f#	the
8f#	mid-
4f#	-night
8f#	hour
=34	=34
4f	_
4r	.
8r	.
8e	she
4f#	cried
=35	=35
4f#	more
4r	.
4e	more
8r	.
[8B	more.
=36	=36
4B]	_
4r	.
2r	.
=37	=37
4r	.
8f#	With
8f#	a
8f#	re-
4f#	-bel
8f#	yell
=38	=38
4f	_
4r	.
8r	.
8e	she
4f#	cried
=39	=39
4f#	more
4r	.
4e	more
8r	.
[8B	more.
=40	=40
8B]	_
8d	_
2B	_
4r	.
=41	=41
4r	.
8f#	In
8f#	the
8f#	mid-
4f#	-night
8f#	hour
=42	=42
4f	_
8f	babe
8r	.
2r	.
=43	=43
4f#	more
4r	.
4e	more
8r	.
[8B	more.
=44	=44
2B]	_
2r	.
=45	=45
4r	.
8f#	With
8f#	a
8f#	re-
4f#	-bel
8f#	yell
=46	=46
2f	_
2r	.
=47	=47
2f#	more
4.e	more
[8f#	more.
=48	=48
4f#]	_
4r	.
4f#	more
4f#	more
=49	=49
4f#	more.
4B	_
2r	.
=50	=50
1r	.
=51	=51
1r	.
=52	=52
1r	.
=53	=53
4r	.
8F#	She
4E	don't
8D	_
4F#	like
=54	=54
4E	slav-
4D	-ery.
8r	.
8D	she
4E	won't
=55	=55
4F#	sit
4r	.
4G	and
4F#	beg.
=56	=56
1r	.
=57	=57
4r	.
8F#	But
4E	when
8D	I'm
8E	tired
8F#	and
=58	=58
4E	lone-
4.D	-ly:
8r	.
4E	she's
=59	=59
4F#	near
4F#	to
2BB	bed.
=60	=60
1r	.
=61	=61
4r	.
4F#	What
8F#	set
4F#	you
[8F#	free,
=62	=62
4F#]	_
8r	.
8D	and
8F#	brought
8F#	you
8F#	to
[8F#	me
=63	=63
4.F#]	_
[8BB	babe?.
4BB]	_
4r	.
=64	=64
1r	.
=65	=65
4r	.
4f#	What
4f#	set
4e#	you
=66	=66
2f#	free?.
8r	.
8e#	I
8f#	need
8f#	you
=67	=67
8f#	here
8e#	_
4f#	by
8f#	me.
4.f	_
=68	=68
4r	.
8f#	be-
[8f#	-cause!
2f#]	_
=69	=69
4r	.
8f#	In
8f#	the
8f#	mid-
4f#	-night
8f#	hour
=70	=70
4f	_
4r	.
8r	.
8e	she
4f#	cried
=71	=71
4f#	more
4r	.
4e	more
8r	.
[8B	more
=72	=72
8B]	_
8d	_
4B	_
2r	.
=73	=73
4r	.
8f#	With
8f#	a
8f#	re-
4f#	-bel
8f#	yell
=74	=74
4f	_
4r	.
8r	.
8e	she
4f#	cried
=75	=75
4f#	more
4r	.
4e	more
8r	.
[8B	more.
=76	=76
8B]	_
8d	_
4.B	_
8r	.
4r	.
=77	=77
4r	.
8f#	In
8f#	the
8f#	mid-
4f#	-night
8f#	hour
=78	=78
4f	_
2f#	babe:
4r	.
=79	=79
4f#	more
4r	.
4e	more
8r	.
[8B	more.
=80	=80
2B]	_
2r	.
=81	=81
4r	.
8f#	With
8f#	a
8f#	re-
4f#	-bel
8f#	yell
=82	=82
2.f	_
4r	.
=83	=83
2f#	more
4.e	more
[8f#	more.
=84	=84
2f#]	_
2r	.
=85	=85
1r	.
=86	=86
1r	.
=87	=87
8r	.
8BB	I
8E	hear
8D	he
4E	lives
8E	in
8D	a
=88	=88
4E	his
4F#	own
8E	hea-
4D	-ven.
[8BB	_
=89	=89
4BB]	_
4r	.
2r	.
=90	=90
2r	.
4.r	.
8D	Col-
=91	=91
4E	-lects
8E	it
8D	to
4E	go
8E	from
8D	the
=92	=92
8E	se-
8E	-ven
8F#	e-
4E	-lev-
4D	-en.
[8BB	_
=93	=93
8BB]	_
4GG	_
8r	.
2r	.
=94	=94
2r	.
8r	.
4E	Well
8D	he's
=95	=95
8E	out
8D	_
8E	all
8D	_
4E	night
8E	to
8D	col-
=96	=96
4E	-lect
4F#	a
8E	fare.
4D	_
[8BB	_
=97	=97
8BB]	_
8r	.
4r	.
2r	.
=98	=98
2.r	.
8E	Just
8D	so
=99	=99
4E	long
8E	just
8D	so
8E	long
8D	it
8E	don't
8D	mess
=100	=100
8E	up
8r	.
4F#	his
8E	hair.
4.D	_
=101	=101
2BB	_
2r	.
=102	=102
1r	.
=103	=103
1r	.
=104	=104
1r	.
=105	=105
1r	.
=106	=106
1r	.
=107	=107
1r	.
=108	=108
1r	.
=109	=109
1r	.
=110	=110
1r	.
=111	=111
1r	.
=112	=112
1r	.
=113	=113
1r	.
=114	=114
1r	.
=115	=115
1r	.
=116	=116
1r	.
=117	=117
1r	.
=118	=118
1r	.
=119	=119
1r	.
=120	=120
1r	.
=121	=121
1r	.
=122	=122
1r	.
=123	=123
1r	.
=124	=124
1r	.
=125	=125
1r	.
=126	=126
1r	.
=127	=127
1r	.
=128	=128
1r	.
=129	=129
4r	.
4F#	I
4F#	walked
8E	the
[8F#	ward
=130	=130
4F#]	_
4r	.
4r	.
8E	with
[8F#	you
=131	=131
4.F#]	_
[8BB	babe.
2BB_	_
=132	=132
4BB]	_
4r	.
2r	.
=133	=133
4r	.
4F#	A
4F#	thou-
4F#	-sand
=134	=134
2F#	miles
4r	.
8F#	with
[8BB	you.
=135	=135
1BB]	_
=136	=136
1r	.
=137	=137
4r	.
4F#	I
4F#	dried
4F#	your
=138	=138
2F#	tears
4r	.
8E	of
8r	.
=139	=139
8r	.
2F#	pain
8r	.
[4BB	babe.
=140	=140
2BB]	_
2r	.
=141	=141
4r	.
4F#	A
4F#	mill-
4F#	-ion
=142	=142
2F#	times
4r	.
8F#	for
[8F#	you.
=143	=143
1F#]	_
=144	=144
1r	.
=145	=145
4r	.
4F#	I'd
4F#	sell
4F#	my
=146	=146
2F#	soul
2r	.
=147	=147
4.F#	you
[8BB	babe:
2BB_	_
=148	=148
2BB]	_
2r	.
=149	=149
4r	.
8F#	for
8E	_
8F#	mon-
8F#	-ey
8E	to
[8F#	burn
=150	=150
2F#]	_
4r	.
8E	with
[8F#	you.
=151	=151
2F#]	_
2r	.
=152	=152
1r	.
=153	=153
4r	.
4f#	I'd
8f#	give
4f#	you
8f#	all
=154	=154
[2e	_
8e]	_
8f#	and
4f#	have
=155	=155
4.f#	none
[8B	babe:
2B]	_
=156	=156
2r	.
8r	.
4f#	Just
8e#	to
=157	=157
4r	.
8f#	just
8e	to
4r	.
8f#	just
8e	to
=158	=158
8r	.
8B	a
8f#	just
8e	to
8r	.
8B	to
8f#	have
8e	you
=159	=159
4f#	here
4f#	by
8f#	me
4.f	_
=160	=160
4r	.
8f#	be-
8f#	-cause!
4f	_
4r	.
=161	=161
4r	.
8f#	In
8f#	the
8f#	mid-
4f#	-night
8f#	hour
=162	=162
4.f	_
8r	.
8r	.
8e	she
4f#	cried
=163	=163
4f#	more
4r	.
4e	more
8r	.
[8B	more.
=164	=164
4B]	_
4r	.
2r	.
=165	=165
4r	.
8f#	With
8f#	a
8f#	re-
4f#	-bel
8f#	yell
=166	=166
4.f	_
8r	.
8r	.
8e	she
4f#	cried
=167	=167
4f#	more
4r	.
4e	more
8r	.
[8B	more.
=168	=168
8B]	_
8d	_
4.B	_
8r	.
4r	.
=169	=169
4r	.
8f#	In
8f#	the
8f#	mid-
4f#	-night
8f#	hour
=170	=170
4f	_
2d	babe.
4r	.
=171	=171
4f#	more
4r	.
4e	more
8r	.
[8B	more.
=172	=172
2B]	_
2r	.
=173	=173
4r	.
8f#	With
8f#	a
8f#	re-
4f#	-bel
8f#	yell
=174	=174
2f	_
8r	.
8e	she
4f#	cried
=175	=175
2f#	more
4.e	more
[8f#	more.
=176	=176
4f#]	_
4r	.
4f#	more
4f#	more
=177	=177
4f#	more.
4B	_
2r	.
=178	=178
1r	.
=179	=179
1r	.
=180	=180
4r	.
8f#	Ooh
4e	yeah
8d	a
8e	lit-
8f#	-tle
=181	=181
4e	ba-
2d	-by.
4r	.
=182	=182
2r	.
8r	.
8e	she
8f#	want
[8B	more.
=183	=183
4B]	_
4r	.
2r	.
=184	=184
4f#	More
4f#	more
4f#	more
4f#	more
=185	=185
4f#	more.
2B	_
4r	.
=186	=186
1r	.
=187	=187
4r	.
8f#	Ooh
4e	yeah
8d	a
8e	lit-
8f#	-tle
=188	=188
4e	an-
2d	-gel.
4r	.
=189	=189
1r	.
=190	=190
2r	.
8r	.
8e	she
8f#	want
[8B	more.
=191	=191
8B]	_
8r	.
4r	.
2r	.
=192	=192
4f#	More
4f#	more
4f#	more
4f#	more
=193	=193
4f#	more.
2B	_
4r	.
=194	=194
1r	.
=195	=195
1r	.
=196	=196
1r	.
=197	=197
1r	.
r;	.
r;	.
*-	*-
!!!ENC: Nathaniel Condit-Schultz